X: 194
T: Mrs Bruce of Kinnaird's Favorite
R: jig
Q: "Slow"
B: William Shepherd "2nd Collection" 1800 p.19 #4
F: http://imslp.org/wiki/File:PMLP73094-Shepherd_Collections_HMT.pdf
C: William Shepherd (17??-1812)
Z: 2012 John Chambers <jc:trillian.mit.edu>
M: 6/8
L: 1/8
K: F
A/B/ |\
c>AF TF>EF | .G.G.G .G.A.B | c>AF TF>EF | G>EC TC2A/B/ |\
c>AF TF>EF | G>AG G>AB | c>AF E>GB | A>FF TF2 :|
c |\
Tf>ef d>ef | (e/f/g)e Tc>de | f>ef d>gf | e>cc Tc2d/e/ |\
f>ef e>cA | d>Bd c>AF | TB>AB G>cB | A>FF TF2 ||
c |\
Tf>ef d>ef | (e/f/g)e Tc>de | f>ef d>gf | ecc Tc2d/_e/ |\
.d(db) BdB | .c(ca) A>cA  | B>AB G>cB | AFF TF2 |]
